images/img-benefits-3.svg

<?xml version="1.0" encoding="UTF-8" standalone="no"?>
<svg width="129px" height="129px" viewBox="0 0 129 129" version="1.1" xmlns="http://www.w3.org/2000/svg" xmlns:xlink="http://www.w3.org/1999/xlink">
    <!-- Generator: Sketch 50.2 (55047) - http://www.bohemiancoding.com/sketch -->
    <title>Group 13</title>
    <desc>Created with Sketch.</desc>
    <defs>
        <rect id="path-1" x="0" y="0" width="79" height="79" rx="16"></rect>
        <filter x="-53.8%" y="-41.1%" width="207.6%" height="207.6%" filterUnits="objectBoundingBox" id="filter-2">
            <feOffset dx="0" dy="10" in="SourceAlpha" result="shadowOffsetOuter1"></feOffset>
            <feGaussianBlur stdDeviation="12.5" in="shadowOffsetOuter1" result="shadowBlurOuter1"></feGaussianBlur>
            <feColorMatrix values="0 0 0 0 0.305882353   0 0 0 0 0.450980392   0 0 0 0 0.874509804  0 0 0 0.5 0" type="matrix" in="shadowBlurOuter1"></feColorMatrix>
        </filter>
    </defs>
    <g id="Page-1" stroke="none" stroke-width="1" fill="none" fill-rule="evenodd">
        <g id="Landing-Page-MC" transform="translate(-166.000000, -1768.000000)">
            <g id="Group-13" transform="translate(191.000000, 1783.000000)">
                <g id="Rectangle-6">
                    <use fill="black" fill-opacity="1" filter="url(#filter-2)" xlink:href="#path-1"></use>
                    <use fill="#4E73DF" fill-rule="evenodd" xlink:href="#path-1"></use>
                </g>
                <g id="030-relation" transform="translate(18.000000, 18.000000)" fill-rule="nonzero">
                    <path d="M24.7114443,22 C24.5113554,22 24.3124044,21.9046879 24.1717732,21.7190122 C23.9158301,21.3811168 23.9497788,20.8717458 24.2477311,20.5812913 L31.8253166,13.194819 C32.123269,12.9045797 32.5722837,12.9429842 32.8282268,13.2809871 C33.0841699,13.6188825 33.0502212,14.1282536 32.7522689,14.4187081 L25.1746834,21.8051804 C25.0404057,21.9359924 24.8754983,22 24.7114443,22 Z" id="Shape" fill="#AA6A51"></path>
                    <path d="M32.3130119,38 C32.1193831,38 31.9269456,37.9210252 31.791048,37.7673446 L24.1656657,29.1013774 C23.918521,28.8216752 23.9516935,28.4006544 24.2398,28.1607953 C24.5280897,27.9207583 24.9618072,27.9533087 25.208952,28.2327441 L32.8343343,36.8987113 C33.081479,37.1784136 33.0483065,37.5994344 32.7602,37.8392935 C32.6305338,37.9471723 32.4713605,38 32.3130119,38 Z" id="Shape" fill="#AA6A51"></path>
                    <path d="M20,9 L19.4376383,23.6716839 C19.3369022,26.2944497 17.1637412,28.4045155 14.4389767,28.5249294 C13.9783291,28.5249294 13.5480002,28.6792098 13.2086272,28.9426152 C12.8692541,29.20508 12.620837,29.5766698 12.523035,30.0103481 L12.0154424,31.5465663 L6.94440727,32 L1,31.5465663 L2.67534874,25.6688617 L2.02985536,9 L20,9 Z" id="Shape" fill="#FFCEBF"></path>
                    <path d="M15,28.5347328 C14.5450092,28.5347328 14.1199647,28.6885779 13.7847591,28.9512403 C13.4495536,29.2129646 13.204187,29.5835061 13.1075859,30.015961 L12.6062266,31.5478455 L8,32 L9.35453956,27.2428091 C9.42167727,27.0069758 9.72056084,26.9206725 9.90796682,27.0841798 C10.5535515,27.6474968 12.072023,28.5840758 15,28.5347328 Z" id="Shape" fill="#FFB09E"></path>
                    <path d="M15,33.2364621 L15,34.5288809 L9.30585161,35 L1,34.5288809 L1,31 L12.6135598,31 C13.9314447,31 15,32.0009025 15,33.2364621 Z" id="Shape" fill="#FFF9DF"></path>
                    <path d="M14,33.3013699 L14,34.6312979 L12.1320146,35 L12.1320146,33.3013699 C12.1320146,32.0299512 11.1773812,31 10,31 L11.8679854,31 C13.0453666,31 14,32.0299512 14,33.3013699 Z" id="Shape" fill="#FFF0AD"></path>
                    <path d="M24,41.7911243 C24,42.4587219 23.5222903,43 22.9330963,43 L2.06690371,43 C1.47770966,43 1,42.4587219 1,41.7911243 L1,34 L17.1238761,34 C20.9214893,34 24,37.4882722 24,41.7911243 Z" id="Shape" fill="#A274BF"></path>
                    <path d="M25,41.7911243 C25,42.4587219 24.5197051,43 23.9273226,43 L20.2358,43 L20.9462244,42.7731361 C21.5453171,42.5818462 21.9229751,41.9169112 21.8285606,41.2232189 C21.3077214,37.3951834 18.4488234,34 15,34 L18.0866648,34 C21.9048294,34 25,37.4882722 25,41.7911243 Z" id="Shape" fill="#925CB4"></path>
                    <path d="M24,7.84312814 C24,10.4512654 21.9769272,12.5910262 19.4238207,12.6833411 L15.987642,12.7941189 L6.6443,13.0955511 C6.19496087,13.11003 5.83802079,13.4861887 5.83802079,13.9453336 L5.83802079,16.3159787 C5.83802079,16.6259622 5.59194053,16.8773501 5.28828929,16.8773501 L3.88726854,16.8773501 C3.28500947,16.8773501 2.79675045,17.3759474 2.79675045,17.9909586 L2.79675045,20.2405256 C2.79675045,20.8550509 3.28453367,21.3531624 3.88631695,21.3531624 L5.28828929,21.3531624 C5.59184537,21.3531624 5.83802079,21.6044531 5.83802079,21.9145338 L5.83802079,23.5978706 C5.83802079,24.9252609 4.78461457,26 3.48569905,26 C2.88049006,26 2.32476357,25.7667836 1.90606553,25.3790612 C1.48736748,24.9903671 1.20379472,24.4500824 1.14574794,23.834974 L0.0266822632,12.2567493 C-0.272115886,9.16371625 1.97362816,6.42245131 5.00633422,6.17563057 L9.64341505,5.79665385 C11.9567217,5.60910896 14.2224491,5.02120918 16.3435353,4.06016308 L17.8070753,3.39549622 L18.1410822,3.24390553 C18.4960239,3.08356923 18.8795132,3 19.2677605,3 C20.5524022,3 21.7352242,3.53251088 22.5973616,4.40415734 C23.4585473,5.27677553 24,6.48755756 24,7.84312814 Z" id="Shape" fill="#87523E"></path>
                    <path d="M24,7.45044151 C24,9.84710785 21.7275534,11.8133743 18.8597387,11.8982042 L15,12 L15.1186461,11.8982042 C17.9864608,11.8133743 20.2589074,9.84710785 20.2589074,7.45044151 C20.2589074,6.20478222 19.6507126,5.09217184 18.6833729,4.29030658 C18.2119952,3.90008929 17.6572447,3.58487945 17.0437055,3.36342891 L17.4188836,3.22412938 C17.8175772,3.07679333 18.2483373,3 18.6844418,3 C20.1274347,3 21.456057,3.48933426 22.4244656,4.29030658 C23.3918052,5.09217184 24,6.20478222 24,7.45044151 Z" id="Shape" fill="#7C4B37"></path>
                    <path d="M47,2.14739032 L47,13.8516849 C47,15.0382059 46.0381503,16 44.8524855,16 L42.0834682,15.9961158 L39,15.5240044 L35.9156069,16 L33.1475145,16 C31.9609249,16 31,15.0382059 31,13.8516849 L31,2.14739032 C31,0.961794116 31.9609249,0 33.1475145,0 L44.8524855,0 C46.0381503,0 47,0.961794116 47,2.14739032 Z" id="Shape" fill="#FFF9DF"></path>
                    <path d="M47,2.14739032 L47,13.8516849 C47,15.0382059 46.2023011,16 45.2189837,16 L43,16 C43.9833174,16 44.7810163,15.0382059 44.7810163,13.8516849 L44.7810163,2.14739032 C44.7810163,0.961794116 43.9833174,0 43,0 L45.2189837,0 C46.2023011,0 47,0.961794116 47,2.14739032 Z" id="Shape" fill="#FFF0AD"></path>
                    <path d="M41,12.3566574 L41,17 L35,17 L35,12.3566574 C35,10.8978102 35.8331084,9.65542411 36.9955016,9.19229801 C37.3094917,9.06745532 37.6477733,9 38.0004498,9 C38.8281601,9 39.5784975,9.37553486 40.1210076,9.98363957 C40.6644175,10.5907375 41,11.4304052 41,12.3566574 Z" id="Shape" fill="#A274BF"></path>
                    <path d="M42,12.3566574 L42,17 L39.9932599,17 L39.9932599,12.3566574 C39.9932599,11.4304052 39.6580544,10.5907375 39.115255,9.98363957 C38.803415,9.6342814 38.4241743,9.36143972 38,9.19229801 C38.3136374,9.06745532 38.651539,9 39.0038194,9 C39.8305999,9 40.5800944,9.37553486 41.1219951,9.98363957 C41.6647944,10.5907375 42,11.4304052 42,12.3566574 Z" id="Shape" fill="#925CB4"></path>
                    <path d="M42,6.49952803 C42,7.18954125 41.7205966,7.81536719 41.2684538,8.26750991 C40.8163111,8.72059656 40.1914291,9 39.500472,9 C39.1663206,9 38.847272,8.93486879 38.5565414,8.81498962 C37.6437606,8.44308099 37,7.54634699 37,6.49952803 C37,5.80951482 37.2803474,5.18463281 37.7324901,4.73154616 C37.9656409,4.49839532 38.2459883,4.31055314 38.5565414,4.18501038 C38.847272,4.06513121 39.1663206,4 39.500472,4 C40.1914291,4 40.8163111,4.27940344 41.2684538,4.73154616 C41.7205966,5.18463281 42,5.80951482 42,6.49952803 Z" id="Shape" fill="#FFCEBF"></path>
                    <path d="M41,6.49952803 C41,7.18954125 40.7565789,7.81536719 40.3626645,8.26750991 C39.96875,8.72059656 39.4243421,9 38.8223684,9 C38.53125,9 38.2532895,8.93486879 38,8.81498962 C38.2705592,8.68944686 38.5148026,8.50160468 38.7179276,8.26750991 C39.1118421,7.81536719 39.3552632,7.18954125 39.3552632,6.49952803 C39.3552632,5.80951482 39.1118421,5.18463281 38.7179276,4.73154616 C38.5148026,4.49839532 38.2705592,4.31055314 38,4.18501038 C38.2532895,4.06513121 38.53125,4 38.8223684,4 C39.4243421,4 39.96875,4.27940344 40.3626645,4.73154616 C40.7565789,5.18463281 41,5.80951482 41,6.49952803 Z" id="Shape" fill="#FFB09E"></path>
                    <path d="M45,30.8796887 L45,41.1203113 C45,42.1588025 44.1587435,43 43.1211611,43 L40.6984995,43 L37.9995092,42.522667 L35.3015005,43 L32.8788389,43 C31.8412565,43 31,42.1588025 31,41.1203113 L31,30.8796887 C31,29.8411975 31.8412565,29 32.8788389,29 L43.1211611,29 C44.1587435,29 45,29.8411975 45,30.8796887 Z" id="Shape" fill="#FFF9DF"></path>
                    <path d="M43,30.8796887 L43,41.1203113 C43,42.1588025 42.264851,43 41.3581385,43 L39,43 C39.9067124,43 40.6418615,42.1588025 40.6418615,41.1203113 L40.6418615,30.8796887 C40.6418615,29.8411975 39.9067124,29 39,29 L41.3581385,29 C42.264851,29 43,29.8411975 43,30.8796887 Z" id="Shape" fill="#FFF0AD"></path>
                    <path d="M40,38.9374141 L40,43 L35,43 L35,38.9374141 C35,37.7299649 35.6202255,36.6924134 36.5069116,36.2414898 C36.8115678,36.0865517 37.1471444,36 37.5,36 C38.190251,36 38.8150236,36.3291101 39.2679156,36.860174 C39.7198981,37.3923065 40,38.1263929 40,38.9374141 Z" id="Shape" fill="#A274BF"></path>
                    <path d="M40,38.9374141 L40,43 L38.2941942,43 L38.2941942,38.9374141 C38.2941942,38.1263929 38.0536319,37.3923065 37.6654517,36.860174 C37.4756574,36.600519 37.250716,36.3889483 37,36.2414898 C37.2616506,36.0865517 37.5498568,36 37.8529029,36 C38.4457173,36 38.9822963,36.3291101 39.3712575,36.860174 C39.7594376,37.3923065 40,38.1263929 40,38.9374141 Z" id="Shape" fill="#925CB4"></path>
                    <path d="M39,35.000458 C39,35.5527822 38.7765056,36.0528967 38.4147012,36.4147012 C38.0528967,36.7765056 37.5527822,37 37.000458,37 C36.7064346,37 36.4270666,36.9367987 36.1760934,36.8223036 C35.4827112,36.5090451 35,35.8110831 35,35.000458 C35,34.4481337 35.2244104,33.9480192 35.5862148,33.5862148 C35.7556675,33.4167621 35.9553469,33.2775361 36.1760934,33.1786123 C36.4270666,33.0632013 36.7064346,33 37.000458,33 C37.5527822,33 38.0528967,33.2244104 38.4147012,33.5862148 C38.7765056,33.9480192 39,34.4481337 39,35.000458 Z" id="Shape" fill="#FFCEBF"></path>
                    <path d="M40,35.000458 C40,35.5527822 39.7625689,36.0528967 39.378203,36.4147012 C38.9938372,36.7765056 38.4625365,37 37.8757704,37 C37.5634123,37 37.2666234,36.9367987 37,36.8223036 C37.2345118,36.7233799 37.4466429,36.5841539 37.6266623,36.4147012 C38.0110282,36.0528967 38.2484593,35.5527822 38.2484593,35.000458 C38.2484593,34.4481337 38.0110282,33.9480192 37.6266623,33.5862148 C37.4466429,33.4167621 37.2345118,33.2775361 37,33.1786123 C37.2666234,33.0632013 37.5634123,33 37.8757704,33 C38.4625365,33 38.9938372,33.2244104 39.378203,33.5862148 C39.7625689,33.9480192 40,34.4481337 40,35.000458 Z" id="Shape" fill="#FFB09E"></path>
                    <path d="M16.290969,21 C15.9810114,21 15.6964665,20.8244924 15.6088924,20.5563356 L15.0262932,18.7703498 C14.9210531,18.4475744 15.1411692,18.1127425 15.5180118,18.0225208 C15.8952323,17.93238 16.2857731,18.1209151 16.3911076,18.4436904 L16.9737068,20.2296763 C17.0789469,20.5524516 16.8588308,20.8872835 16.4819882,20.9775053 C16.4182206,20.9927175 16.3540752,21 16.290969,21 Z" id="Shape" fill="#FFB09E"></path>
                    <path d="M13.437141,26 C12.5644856,26 11.7252334,25.4664838 11.1595596,24.5400148 C10.9177504,24.1438134 10.9549658,23.5526974 11.242795,23.2197183 C11.530715,22.8868642 11.9600534,22.9378418 12.2019534,23.3342931 C12.5327164,23.8761807 13.0373025,24.1708016 13.5478794,24.1204486 C13.724244,24.1032062 13.8954348,24.0476055 14.0562778,23.9550211 C14.402744,23.7551087 14.801947,23.9801351 14.9469962,24.4575509 C15.092227,24.9348418 14.9287516,25.4839761 14.5819224,25.6836386 C14.2841994,25.8553134 13.9684132,25.9582683 13.6436409,25.9898794 C13.5747471,25.9967514 13.5058533,26 13.437141,26 Z" id="Shape" fill="#FFB09E"></path>
                    <path d="M41.2711921,23 L33.7288079,23 C33.3262144,23 33,22.7762 33,22.5 C33,22.2238 33.3262144,22 33.7288079,22 L41.2711921,22 C41.6737856,22 42,22.2238 42,22.5 C42,22.7762 41.6736884,23 41.2711921,23 Z" id="Shape" fill="#AA6A51"></path>
                    <path d="M47,21.4167639 L47,24.5832361 C47,25.3661056 46.3662113,26 45.5834722,26 L42.4175275,26 C41.6347884,26 41,25.3661056 41,24.5832361 L41,21.4167639 C41,20.6338944 41.6347884,20 42.4175275,20 L45.5834722,20 C46.3662113,20 47,20.6338944 47,21.4167639 Z" id="Shape" fill="#A274BF"></path>
                    <path d="M47,21.4167639 L47,24.5832361 C47,25.3661056 46.4852503,26 45.8495264,26 L44,26 C44.634912,26 45.1504736,25.3661056 45.1504736,24.5832361 L45.1504736,21.4167639 C45.1504736,20.6338944 44.634912,20 44,20 L45.8495264,20 C46.4852503,20 47,20.6338944 47,21.4167639 Z" id="Shape" fill="#925CB4"></path>
                </g>
            </g>
        </g>
    </g>
</svg>

<svg xmlns="http://www.w3.org/2000/svg" xmlns:xlink="http://www.w3.org/1999/xlink" viewBox="0 0 129 129"><defs><rect id="b" width="79" height="79" x="0" y="0" rx="16"/><filter id="a" width="207.6%" height="207.6%" x="-53.8%" y="-41.1%" filterUnits="objectBoundingBox"><feOffset dy="10" in="SourceAlpha" result="shadowOffsetOuter1"/><feGaussianBlur in="shadowOffsetOuter1" result="shadowBlurOuter1" stdDeviation="12.5"/><feColorMatrix in="shadowBlurOuter1" values="0 0 0 0 0.305882353 0 0 0 0 0.450980392 0 0 0 0 0.874509804 0 0 0 0.5 0"/></filter></defs><g fill="none" fill-rule="evenodd" stroke="none" stroke-width="1"><g transform="translate(-166 -1768) translate(191 1783)"><use fill="#000" filter="url(#a)" xlink:href="#b"/><use fill="#4E73DF" xlink:href="#b"/></g><g fill-rule="nonzero"><path fill="#AA6A51" d="M24.711 22a.677.677 0 0 1-.54-.281c-.255-.338-.221-.847.077-1.138l7.577-7.386c.298-.29.747-.252 1.003.086.256.338.222.847-.076 1.138l-7.577 7.386a.661.661 0 0 1-.464.195zM32.313 38a.695.695 0 0 1-.522-.233l-7.625-8.666a.653.653 0 0 1 .074-.94.702.702 0 0 1 .969.072l7.625 8.666c.247.28.214.7-.074.94a.697.697 0 0 1-.447.161z" transform="translate(-166 -1768) translate(191 1783) translate(18 18)"/><path fill="#FFCEBF" d="m20 9-.562 14.672c-.101 2.622-2.274 4.733-4.999 4.853-.46 0-.891.154-1.23.418a1.87 1.87 0 0 0-.686 1.067l-.508 1.537-5.07.453L1 31.547l1.675-5.878L2.03 9H20z" transform="translate(-166 -1768) translate(191 1783) translate(18 18)"/><path fill="#FFB09E" d="M15 28.535c-.455 0-.88.154-1.215.416-.335.262-.58.633-.677 1.065l-.502 1.532L8 32l1.355-4.757a.343.343 0 0 1 .553-.159c.646.563 2.164 1.5 5.092 1.45z" transform="translate(-166 -1768) translate(191 1783) translate(18 18)"/><path fill="#FFF9DF" d="M15 33.236v1.293L9.306 35 1 34.529V31h11.614C13.93 31 15 32 15 33.236z" transform="translate(-166 -1768) translate(191 1783) translate(18 18)"/><path fill="#FFF0AD" d="M14 33.301v1.33L12.132 35v-1.699C12.132 32.03 11.177 31 10 31h1.868C13.045 31 14 32.03 14 33.301z" transform="translate(-166 -1768) translate(191 1783) translate(18 18)"/><path fill="#A274BF" d="M24 41.791C24 42.46 23.522 43 22.933 43H2.067C1.477 43 1 42.459 1 41.791V34h16.124C20.92 34 24 37.488 24 41.791z" transform="translate(-166 -1768) translate(191 1783) translate(18 18)"/><path fill="#925CB4" d="M25 41.791C25 42.46 24.52 43 23.927 43h-3.691l.71-.227c.6-.191.977-.856.883-1.55C21.308 37.395 18.449 34 15 34h3.087C21.905 34 25 37.488 25 41.791z" transform="translate(-166 -1768) translate(191 1783) translate(18 18)"/><path fill="#87523E" d="M24 7.843c0 2.608-2.023 4.748-4.576 4.84l-3.436.111-9.344.302a.842.842 0 0 0-.806.85v2.37c0 .31-.246.561-.55.561h-1.4c-.603 0-1.091.499-1.091 1.114v2.25c0 .614.488 1.112 1.09 1.112h1.401c.304 0 .55.251.55.562v1.683C5.838 24.925 4.785 26 3.486 26c-.606 0-1.161-.233-1.58-.62a2.41 2.41 0 0 1-.76-1.545L.026 12.257c-.298-3.093 1.948-5.835 4.98-6.081l4.637-.38a20.186 20.186 0 0 0 6.7-1.736l1.464-.665.334-.151c.355-.16.739-.244 1.127-.244a4.68 4.68 0 0 1 3.33 1.404A4.874 4.874 0 0 1 24 7.844z" transform="translate(-166 -1768) translate(191 1783) translate(18 18)"/><path fill="#7C4B37" d="M24 7.45c0 2.397-2.272 4.363-5.14 4.448L15 12l.119-.102c2.867-.085 5.14-2.05 5.14-4.448 0-1.245-.608-2.358-1.576-3.16a5.492 5.492 0 0 0-1.64-.927l.376-.139A3.66 3.66 0 0 1 18.684 3c1.443 0 2.772.49 3.74 1.29C23.392 5.092 24 6.205 24 7.45z" transform="translate(-166 -1768) translate(191 1783) translate(18 18)"/><path fill="#FFF9DF" d="M47 2.147v11.705A2.148 2.148 0 0 1 44.852 16l-2.769-.004L39 15.524 35.916 16h-2.768A2.148 2.148 0 0 1 31 13.852V2.147C31 .962 31.96 0 33.148 0h11.704C46.038 0 47 .962 47 2.147z" transform="translate(-166 -1768) translate(191 1783) translate(18 18)"/><path fill="#FFF0AD" d="M47 2.147v11.705C47 15.038 46.202 16 45.219 16H43c.983 0 1.781-.962 1.781-2.148V2.147C44.781.962 43.983 0 43 0h2.219C46.202 0 47 .962 47 2.147z" transform="translate(-166 -1768) translate(191 1783) translate(18 18)"/><path fill="#A274BF" d="M41 12.357V17h-6v-4.643c0-1.46.833-2.702 1.996-3.165A2.71 2.71 0 0 1 38 9c.828 0 1.578.376 2.121.984.543.607.879 1.446.879 2.373z" transform="translate(-166 -1768) translate(191 1783) translate(18 18)"/><path fill="#925CB4" d="M42 12.357V17h-2.007v-4.643c0-.927-.335-1.766-.878-2.373A2.98 2.98 0 0 0 38 9.192 2.705 2.705 0 0 1 39.004 9c.827 0 1.576.376 2.118.984.543.607.878 1.446.878 2.373z" transform="translate(-166 -1768) translate(191 1783) translate(18 18)"/><path fill="#FFCEBF" d="M42 6.5c0 .69-.28 1.315-.732 1.768A2.489 2.489 0 0 1 39.5 9 2.5 2.5 0 1 1 42 6.5z" transform="translate(-166 -1768) translate(191 1783) translate(18 18)"/><path fill="#FFB09E" d="M41 6.5a2.69 2.69 0 0 1-.637 1.768c-.394.453-.939.732-1.54.732-.292 0-.57-.065-.823-.185a2.16 2.16 0 0 0 .718-.547 2.69 2.69 0 0 0 .637-1.768c0-.69-.243-1.315-.637-1.768A2.17 2.17 0 0 0 38 4.185c.253-.12.531-.185.822-.185.602 0 1.147.28 1.54.732.395.453.638 1.078.638 1.768z" transform="translate(-166 -1768) translate(191 1783) translate(18 18)"/><path fill="#FFF9DF" d="M45 30.88v10.24A1.88 1.88 0 0 1 43.121 43h-2.423L38 42.523 35.302 43h-2.423A1.88 1.88 0 0 1 31 41.12V30.88A1.88 1.88 0 0 1 32.879 29H43.12A1.88 1.88 0 0 1 45 30.88z" transform="translate(-166 -1768) translate(191 1783) translate(18 18)"/><path fill="#FFF0AD" d="M43 30.88v10.24c0 1.039-.735 1.88-1.642 1.88H39c.907 0 1.642-.841 1.642-1.88V30.88c0-1.039-.735-1.88-1.642-1.88h2.358c.907 0 1.642.841 1.642 1.88z" transform="translate(-166 -1768) translate(191 1783) translate(18 18)"/><path fill="#A274BF" d="M40 38.937V43h-5v-4.063c0-1.207.62-2.245 1.507-2.696A2.18 2.18 0 0 1 37.5 36c.69 0 1.315.33 1.768.86.452.532.732 1.266.732 2.077z" transform="translate(-166 -1768) translate(191 1783) translate(18 18)"/><path fill="#925CB4" d="M40 38.937V43h-1.706v-4.063c0-.81-.24-1.545-.629-2.077a2.247 2.247 0 0 0-.665-.619c.262-.154.55-.241.853-.241.593 0 1.13.33 1.518.86.388.532.629 1.266.629 2.077z" transform="translate(-166 -1768) translate(191 1783) translate(18 18)"/><path fill="#FFCEBF" d="M39 35a1.994 1.994 0 0 1-2.824 1.822A1.999 1.999 0 0 1 37 33c.553 0 1.053.224 1.415.586.362.362.585.862.585 1.414z" transform="translate(-166 -1768) translate(191 1783) translate(18 18)"/><path fill="#FFB09E" d="M40 35c0 .553-.237 1.053-.622 1.415a2.186 2.186 0 0 1-1.502.585c-.313 0-.61-.063-.876-.178.235-.099.447-.238.627-.407.384-.362.621-.862.621-1.415 0-.552-.237-1.052-.621-1.414A2.114 2.114 0 0 0 37 33.18c.267-.116.563-.179.876-.179.587 0 1.118.224 1.502.586.385.362.622.862.622 1.414zM16.291 21c-.31 0-.595-.176-.682-.444l-.583-1.786c-.105-.322.115-.657.492-.747.377-.09.768.098.873.42l.583 1.787c.105.322-.115.657-.492.748a.823.823 0 0 1-.191.022zM13.437 26c-.873 0-1.712-.534-2.277-1.46-.242-.396-.205-.987.083-1.32.288-.333.717-.282.959.114.33.542.835.837 1.346.786a1.26 1.26 0 0 0 .508-.165c.347-.2.746.025.891.503.145.477-.018 1.026-.365 1.226a2.32 2.32 0 0 1-1.145.316z" transform="translate(-166 -1768) translate(191 1783) translate(18 18)"/><path fill="#AA6A51" d="M41.271 23H33.73c-.403 0-.729-.224-.729-.5s.326-.5.729-.5h7.542c.403 0 .729.224.729.5s-.326.5-.729.5z" transform="translate(-166 -1768) translate(191 1783) translate(18 18)"/><path fill="#A274BF" d="M47 21.417v3.166c0 .783-.634 1.417-1.417 1.417h-3.165A1.417 1.417 0 0 1 41 24.583v-3.166c0-.783.635-1.417 1.418-1.417h3.165c.783 0 1.417.634 1.417 1.417z" transform="translate(-166 -1768) translate(191 1783) translate(18 18)"/><path fill="#925CB4" d="M47 21.417v3.166c0 .783-.515 1.417-1.15 1.417H44c.635 0 1.15-.634 1.15-1.417v-3.166c0-.783-.515-1.417-1.15-1.417h1.85c.635 0 1.15.634 1.15 1.417z" transform="translate(-166 -1768) translate(191 1783) translate(18 18)"/></g></g></svg>
